public/img/twitter.svg

<?xml version="1.0" encoding="UTF-8"?>
<svg width="30px" height="34px" viewBox="0 0 30 34" version="1.1" xmlns="http://www.w3.org/2000/svg" xmlns:xlink="http://www.w3.org/1999/xlink">
    <!-- Generator: Sketch 42 (36781) - http://www.bohemiancoding.com/sketch -->
    <title>Tw_Icon</title>
    <desc>Created with Sketch.</desc>
    <defs></defs>
    <g id="Page-1" stroke="none" stroke-width="1" fill="none" fill-rule="evenodd">
        <g id="LANDING-W/MENU" transform="translate(-476.000000, -2662.000000)" fill="#4A4A4A">
            <g id="Footer" transform="translate(0.000000, 2568.000000)">
                <g id="Social_Icons" transform="translate(436.000000, 94.000000)">
                    <g id="Tw_Icon" transform="translate(40.000000, 0.000000)">
                        <path d="M20.0323759,13.8657058 L20.0424169,14.2489367 C20.0424169,18.1638046 17.0635918,22.6772268 11.6141268,22.6772268 C9.94118739,22.6772268 8.38483493,22.1863342 7.07392873,21.3445651 C7.30542919,21.3707832 7.54083447,21.3847291 7.78014458,21.3847291 C9.16803165,21.3847291 10.4454679,20.9133607 11.4590494,20.1190073 C10.1632047,20.0955783 9.06985314,19.2393056 8.69220059,18.0617213 C8.87405396,18.0979804 9.05869649,18.1169467 9.25003301,18.1169467 C9.52058174,18.1169467 9.85974385,18.0795719 10.1079793,18.0131899 C8.75356216,17.7404098 7.8097097,16.5427436 7.8097097,15.1085565 L7.8097097,15.0711817 C7.8097097,15.293199 8.58844376,15.4270788 9.0743158,15.4432559 C8.27996243,14.9121995 7.71766735,14.0057218 7.71766735,12.9776366 C7.71766735,12.4348657 7.84373748,11.9255647 8.09922473,11.4887819 C9.56018784,13.2810974 11.7329451,14.4603552 14.1946596,14.584194 C14.1444547,14.3671972 14.1132161,14.1407172 14.1132161,13.9092168 C14.1132161,12.2736521 15.4375102,10.9476844 17.0730749,10.9476844 C17.9260007,10.9476844 18.6935781,11.3069285 19.2341177,11.8831694 C19.9090949,11.7498474 20.5416769,11.5032855 21.1156865,11.1641234 C20.894227,11.8541621 20.4250899,12.4354235 19.8131478,12.8019194 C20.4128176,12.7305168 20.9823645,12.5709768 21.5145367,12.3355715 C21.1184756,12.9291052 20.6141951,13.4506785 20.0323759,13.8657058 M28.2994524,8.23271403 L15.41185,0.768916211 C15.1680772,0.628342441 14.9159369,0.558055556 14.6431569,0.558055556 C14.3714925,0.558055556 14.1087534,0.628342441 13.8649806,0.768916211 L0.863022541,8.23271403 C0.375477004,8.51386157 5.57832423e-05,9.03487705 5.57832423e-05,9.5982878 L5.57832423e-05,24.5247678 C5.57832423e-05,25.0881785 0.380497495,25.6080783 0.868043033,25.8897837 L13.8348577,33.3535815 C14.3229611,33.6352869 14.9443864,33.6352869 15.4319319,33.3535815 L28.2894114,25.8897837 C28.776957,25.6080783 29.0073418,25.0881785 29.0073418,24.5247678 L29.0073418,9.5982878 C29.0073418,9.03487705 28.786998,8.51386157 28.2994524,8.23271403" id="Fill-7"></path>
                    </g>
                </g>
            </g>
        </g>
    </g>
</svg>

<svg width="30" height="34" viewBox="0 0 30 34" xmlns="http://www.w3.org/2000/svg"><title>Tw_Icon</title><path d="M20.032 13.866l.01.383c0 3.915-2.978 8.428-8.428 8.428-1.673 0-3.23-.49-4.54-1.332.231.026.467.04.706.04a5.942 5.942 0 0 0 3.679-1.266 2.964 2.964 0 0 1-2.767-2.057c.182.036.367.055.558.055.27 0 .61-.037.858-.104-1.354-.273-2.298-1.47-2.298-2.904v-.038c0 .222.778.356 1.264.372-.794-.53-1.356-1.437-1.356-2.465 0-.543.126-1.052.381-1.49a8.39 8.39 0 0 0 6.096 3.096 2.996 2.996 0 0 1-.082-.675 2.96 2.96 0 0 1 5.121-2.026 5.966 5.966 0 0 0 1.882-.719 2.974 2.974 0 0 1-1.303 1.638c.6-.071 1.17-.231 1.702-.466a5.92 5.92 0 0 1-1.483 1.53M28.3 8.233L15.412.769a1.505 1.505 0 0 0-.769-.21c-.272 0-.534.07-.778.21L.863 8.233C.375 8.513 0 9.035 0 9.598v14.927c0 .563.38 1.083.868 1.365l12.967 7.464c.488.281 1.11.281 1.597 0l12.857-7.464c.488-.282.718-.802.718-1.365V9.598c0-.563-.22-1.084-.708-1.365" fill="#4A4A4A" fill-rule="evenodd"/></svg>
